Страховая/img/svg/secStep5.svg

<svg width="112" height="112" viewBox="0 0 112 112" fill="none" xmlns="http://www.w3.org/2000/svg">
<path d="M30.3747 24.8159C48.5118 14.7612 68.5648 16.9461 84.091 32.4723C99.6172 47.9985 97.4012 73.0116 81.8313 88.5815C66.2614 104.151 32.1603 83.7792 16.6341 68.253C1.10791 52.7268 9.93857 36.1451 30.3747 24.8159Z" fill="#E7F1F2"/>
<path d="M58.8603 63.9521C58.8603 62.7147 58.583 61.6267 58.0283 60.6881C57.4736 59.7067 56.5136 58.8961 55.1483 58.2561C53.783 57.6161 51.9483 57.1254 49.6443 56.7841C47.3403 56.4427 44.439 56.2721 40.9403 56.2721C41.4096 52.3041 41.7936 48.2721 42.0923 44.1761C42.391 40.0801 42.6256 36.2401 42.7963 32.6561H66.7963V40.6561H50.7963C50.711 42.1921 50.6043 43.6854 50.4763 45.1361C50.391 46.5441 50.2843 47.7814 50.1563 48.8481C56.3856 49.2747 60.9723 50.7467 63.9163 53.2641C66.903 55.7387 68.3963 59.1947 68.3963 63.6321C68.3963 65.6801 68.0336 67.5787 67.3083 69.3281C66.583 71.0774 65.495 72.5921 64.0443 73.8721C62.5936 75.1521 60.759 76.1547 58.5403 76.8801C56.3643 77.6054 53.8043 77.9681 50.8603 77.9681C49.7083 77.9681 48.4923 77.8827 47.2123 77.7121C45.975 77.5841 44.759 77.3921 43.5643 77.1361C42.4123 76.9227 41.367 76.6881 40.4283 76.4321C39.4896 76.1761 38.7643 75.9201 38.2523 75.6641L39.9803 67.7921C41.047 68.2614 42.455 68.7307 44.2043 69.2001C45.9536 69.6267 48.0443 69.8401 50.4763 69.8401C53.4203 69.8401 55.5536 69.2641 56.8763 68.1121C58.199 66.9174 58.8603 65.5307 58.8603 63.9521Z" fill="#5FB5BF"/>
</svg>

<svg width="112" height="112" fill="none" xmlns="http://www.w3.org/2000/svg"><path d="M30.375 24.816c18.137-10.055 38.19-7.87 53.716 7.656 15.526 15.526 13.31 40.54-2.26 56.11-15.57 15.569-49.67-4.803-65.197-20.329C1.108 52.727 9.94 36.145 30.374 24.816z" fill="#E7F1F2"/><path d="M58.86 63.952c0-1.237-.277-2.325-.832-3.264-.554-.981-1.514-1.792-2.88-2.432-1.365-.64-3.2-1.13-5.504-1.472-2.304-.341-5.205-.512-8.704-.512.47-3.968.854-8 1.152-12.096.299-4.096.534-7.936.704-11.52h24v8h-16c-.085 1.536-.192 3.03-.32 4.48a64.113 64.113 0 01-.32 3.712c6.23.427 10.816 1.899 13.76 4.416 2.987 2.475 4.48 5.93 4.48 10.368 0 2.048-.362 3.947-1.088 5.696a12.252 12.252 0 01-3.264 4.544c-1.45 1.28-3.285 2.283-5.504 3.008-2.176.725-4.736 1.088-7.68 1.088a27.59 27.59 0 01-3.648-.256 34.189 34.189 0 01-3.648-.576 38.935 38.935 0 01-3.136-.704c-.938-.256-1.664-.512-2.176-.768l1.728-7.872c1.067.47 2.475.939 4.224 1.408 1.75.427 3.84.64 6.272.64 2.944 0 5.078-.576 6.4-1.728 1.323-1.195 1.984-2.581 1.984-4.16z" fill="#5FB5BF"/></svg>
